source/img/logo/logo-mobile.svg

<svg width="33" height="38" viewBox="0 0 33 38" fill="none" xmlns="http://www.w3.org/2000/svg">
<g clip-path="url(#clip0_153_267)">
<path d="M6.0117 20.9349V18.6514C12.6311 17.7242 19.3065 17.2752 25.988 17.3076C25.988 17.9139 25.988 18.5302 25.9286 19.1465C27.8277 18.2867 29.8236 17.6691 31.8709 17.3076C30.5661 13.8643 28.1884 10.9536 25.1037 9.02347C22.0189 7.09332 18.398 6.25055 14.7979 6.62482C11.1978 6.9991 7.81798 8.56967 5.17831 11.095C2.53863 13.6202 0.785353 16.9603 0.188175 20.6014L6.0117 20.9349Z" fill="#FDC305"/>
<path d="M26.9784 24.4813C25.8295 25.7745 25.6017 25.6937 25.6017 27.967C25.6017 28.8865 25.6017 32.9178 25.6017 37.2422C27.8723 35.7125 29.7362 33.6331 31.0271 31.1895C32.3181 28.746 32.9959 26.0143 33 23.2385C32.9869 22.1869 32.8809 21.1385 32.6831 20.1064C30.6312 21.3486 28.7183 22.8156 26.9784 24.4813Z" fill="#FDC305"/>
<path d="M6.29892 25.9867C6.29892 25.9867 2.54532 24.5318 1.15876 24.1377C0.779508 24.0158 0.392293 23.9212 0 23.8548C0.107354 26.7707 0.956315 29.608 2.4635 32.0879C3.97068 34.5679 6.08426 36.6053 8.59664 38L6.29892 25.9867Z" fill="#FDC305"/>
<path d="M26.0375 17.2975C26.0778 11.7189 25.6136 6.1484 24.651 0.656758C24.651 0.656758 24.5123 -0.646619 23.7695 0.414269C23.1861 1.67535 22.7857 3.01637 22.581 4.39513C18.3638 4.11805 14.1305 4.23303 9.93367 4.73865C9.15126 2.02076 7.77461 0.757795 7.11104 1.01039C6.44748 1.26298 6.39796 4.35471 6.39796 4.35471L6.07113 18.6009C12.6882 17.6876 19.3603 17.252 26.0375 17.2975Z" fill="#F06351"/>
<path d="M12.2908 14.1452C12.2908 14.0542 13.2812 14.8322 13.6873 15.0747C14.0933 15.3172 14.2914 15.4991 14.2914 15.6708C14.2914 15.8426 14.024 16.0144 13.6675 16.0144C13.3109 16.0144 12.7662 15.8931 12.6771 15.7416H13.608H13.8953C13.2918 15.2863 12.7521 14.7492 12.2908 14.1452Z" fill="black"/>
<path d="M19.699 14.2563L18.6194 15.6001C18.6194 15.6607 18.4511 15.9537 18.7977 15.9032C19.2079 15.8408 19.6122 15.7428 20.006 15.6102C20.1149 15.6102 20.0753 15.4182 19.8971 15.4384C19.7188 15.4587 19.2137 15.489 18.9067 15.5496L19.7386 14.2765C19.7386 14.2765 19.8079 14.1452 19.699 14.2563Z" fill="black"/>
<path d="M16.5891 20.4095C17.0482 20.2031 17.4277 19.848 17.6687 19.3991C17.946 18.7424 17.6687 18.4797 17.2329 18.3887C16.6366 18.2777 16.0211 18.4004 15.5096 18.7323C15.1233 19.096 15.1729 19.4597 15.4601 19.7426C15.808 20.0116 16.1872 20.2356 16.5891 20.4095Z" fill="black"/>
<path d="M16.193 21.6724C16.082 21.9033 15.9271 22.1094 15.7374 22.2786C15.4553 22.5102 15.1086 22.6446 14.747 22.6626C14.2259 22.705 13.7077 22.5504 13.2911 22.2281C13.0953 22.1077 12.9183 21.9578 12.7662 21.7836C12.6667 21.6715 12.5452 21.582 12.4097 21.5209C12.4097 21.5209 13.1525 25.6634 14.955 26.3201C16.7575 26.9769 17.0744 25.5623 17.1339 25.1784C17.1934 24.0318 16.9102 22.8937 16.3217 21.9149C16.3019 21.6017 16.292 21.8038 16.193 21.6724Z" fill="#F06351"/>
<path d="M14.5687 22.8242C14.1085 22.7583 13.6664 22.597 13.2695 22.3503C12.8727 22.1035 12.5295 21.7766 12.2611 21.3895C12.2479 21.3764 12.2375 21.3606 12.2303 21.3433C12.2232 21.3259 12.2195 21.3073 12.2195 21.2885C12.2195 21.2697 12.2232 21.251 12.2303 21.2337C12.2375 21.2163 12.2479 21.2006 12.2611 21.1874C12.274 21.174 12.2894 21.1633 12.3064 21.156C12.3234 21.1487 12.3417 21.145 12.3601 21.145C12.3786 21.145 12.3969 21.1487 12.4139 21.156C12.4309 21.1633 12.4463 21.174 12.4592 21.1874C12.9591 21.8889 13.71 22.3608 14.5489 22.5009C14.8774 22.4757 15.1952 22.3709 15.476 22.1952C15.7568 22.0194 15.9924 21.7779 16.1633 21.4906L16.3019 21.2986L16.401 21.5108C16.401 21.5108 16.7674 22.2786 17.3914 22.3191C18.0153 22.3595 18.4313 21.9048 18.9859 21.0258C18.9988 21.0123 19.0142 21.0017 19.0312 20.9944C19.0482 20.9871 19.0665 20.9833 19.0849 20.9833C19.1034 20.9833 19.1216 20.9871 19.1386 20.9944C19.1557 21.0017 19.1711 21.0123 19.184 21.0258C19.216 21.0466 19.2389 21.0792 19.2482 21.1168C19.2574 21.1544 19.2521 21.1941 19.2335 21.2279C18.5996 22.2382 17.9757 22.6828 17.3715 22.6424C17.1418 22.6083 16.9226 22.5215 16.7304 22.3885C16.5383 22.2555 16.3782 22.0797 16.2623 21.8745C16.0675 22.1518 15.8142 22.3811 15.5212 22.5455C15.2281 22.7098 14.9026 22.8051 14.5687 22.8242Z" fill="black"/>
<path d="M25.988 19.1162C24.2097 20.7567 22.5327 22.508 20.9667 24.36C19.4104 26.2051 17.6526 27.8627 15.7275 29.3007C15.5096 28.7652 14.1231 27.7751 14.1231 27.7751C14.1231 27.7751 11.0231 25.6129 8.9928 23.9154C7.89756 22.9731 6.86216 21.9607 5.89286 20.8843L3.91207 20.7732C6.77449 25.0224 10.9639 28.1565 15.7968 29.6645C16.6486 29.523 19.0354 27.7852 20.8181 26.3706C22.9167 24.5337 24.8827 22.5448 26.7011 20.4196C27.1988 19.8245 27.5818 19.1389 27.8301 18.3988C26.7407 18.7929 25.988 19.1162 25.988 19.1162Z" fill="#F06351"/>
</g>
<defs>
<clipPath id="clip0_153_267">
<rect width="33" height="38" fill="white"/>
</clipPath>
</defs>
</svg>

<svg xmlns="http://www.w3.org/2000/svg" width="33" height="38" fill="none">
  <g clip-path="url(#clip0_153_267)">
    <path fill="#fdc305" d="M6.01 20.93v-2.28c6.62-.93 13.3-1.37 19.98-1.34 0 .6 0 1.22-.06 1.84a24.9 24.9 0 0 1 5.94-1.84 16.77 16.77 0 0 0-6.77-8.29A16.25 16.25 0 0 0 5.18 11.1a16.95 16.95 0 0 0-5 9.5l5.83.33Zm20.97 3.55c-1.15 1.3-1.38 1.21-1.38 3.49v9.27a16.7 16.7 0 0 0 5.43-6.05A17.08 17.08 0 0 0 33 23.24a17.3 17.3 0 0 0-.32-3.13 32.86 32.86 0 0 0-5.7 4.37ZM6.3 25.99s-3.75-1.46-5.14-1.85A8.33 8.33 0 0 0 0 23.85c.1 2.92.96 5.76 2.46 8.24A16.63 16.63 0 0 0 8.6 38L6.3 25.99Z"/>
    <path fill="#f06351" d="M26.04 17.3A92.52 92.52 0 0 0 24.65.66s-.14-1.3-.88-.25c-.58 1.27-.98 2.6-1.19 3.99a68.3 68.3 0 0 0-12.65.34C9.15 2.02 7.77.76 7.11 1c-.66.25-.71 3.34-.71 3.34L6.07 18.6a139.1 139.1 0 0 1 19.97-1.3Z"/>
    <path fill="#000000" d="M12.3 14.15c0-.1.98.68 1.39.92.4.25.6.43.6.6 0 .17-.27.34-.62.34-.36 0-.9-.12-1-.27h1.23c-.6-.45-1.15-1-1.6-1.6Zm7.4.11-1.08 1.34c0 .06-.17.35.18.3.4-.06.81-.16 1.2-.29.11 0 .08-.2-.1-.17-.18.02-.69.05-1 .11l.84-1.27s.07-.13-.04-.02Zm-3.11 6.15c.46-.2.84-.56 1.08-1.01.28-.66 0-.92-.44-1.01-.6-.11-1.2.01-1.72.34-.39.37-.34.73-.05 1.01.35.27.73.5 1.13.67Z"/>
    <path fill="#f06351" d="M16.2 21.67a1.7 1.7 0 0 1-1.45.99 2.1 2.1 0 0 1-1.46-.43c-.2-.12-.37-.27-.52-.45-.1-.1-.22-.2-.36-.26 0 0 .74 4.14 2.54 4.8 1.8.66 2.12-.76 2.18-1.14a5.76 5.76 0 0 0-.8-3.27c-.03-.3-.04-.1-.14-.24Z"/>
    <path fill="#000000" d="M14.57 22.82a3.36 3.36 0 0 1-2.35-1.53.14.14 0 0 1 .09-.13.14.14 0 0 1 .15.03c.5.7 1.25 1.17 2.09 1.31a2.04 2.04 0 0 0 1.61-1l.14-.2.1.21s.37.77 1 .8c.62.05 1.03-.4 1.59-1.28a.14.14 0 0 1 .2 0c.03.02.05.05.06.09 0 .03 0 .07-.02.1-.63 1.02-1.25 1.46-1.86 1.42a1.52 1.52 0 0 1-1.1-.77 2.25 2.25 0 0 1-1.7.95Z"/>
    <path fill="#f06351" d="M25.99 19.12a58.7 58.7 0 0 0-5.02 5.24 31.58 31.58 0 0 1-5.24 4.94c-.22-.53-1.6-1.52-1.6-1.52s-3.1-2.17-5.14-3.86a34.1 34.1 0 0 1-3.1-3.04l-1.98-.1a22.39 22.39 0 0 0 11.89 8.88c.85-.14 3.24-1.87 5.02-3.29a58.15 58.15 0 0 0 5.88-5.95c.5-.6.88-1.28 1.13-2.02-1.09.4-1.84.72-1.84.72Z"/>
  </g>
  <defs>
    <clipPath id="clip0_153_267">
      <path fill="#ffffff" d="M0 0h33v38H0z"/>
    </clipPath>
  </defs>
</svg>
